X:500
T:Ganerien's Flight
A:Wyresdale, Lancashire
B:H.S.J. Jackson, 1823
L:1/8
M:none
O:England
Z:Richard Robinson 
%%TUNEURL: http://www.leeds.ac.uk/music/Info/RRTuneBk/gettune/00000e34.html
%%ID:00000e34
K:G
g3 d3 | BdB GAB | c2A B2G | FAF D2f | \
g3 d3 | BdB GAB | E2A FEF | G3 G3  ::
c2A ABc | d2B Bcd | e2c A2G | FAF D3 |\
cBA ABc | dcB Bcd | ecA FDF | G3 G3 ::
